icons/themes/default/logout.svg

<svg viewBox="0 0 17 16" fill="none" xmlns="http://www.w3.org/2000/svg">
<path fill-rule="evenodd" clip-rule="evenodd" d="M8.68005 2.45001C8.68005 2.17387 8.90391 1.95001 9.18005 1.95001H12.2901C12.8947 1.95001 13.4747 2.19023 13.9023 2.61781C14.3298 3.04539 14.5701 3.62532 14.5701 4.23001V11.79C14.5701 12.3947 14.3298 12.9746 13.9023 13.4022C13.4747 13.8298 12.8947 14.07 12.2901 14.07H9.18005C8.90391 14.07 8.68005 13.8462 8.68005 13.57C8.68005 13.2939 8.90391 13.07 9.18005 13.07H12.2901C12.6295 13.07 12.9551 12.9352 13.1952 12.6951C13.4352 12.4551 13.5701 12.1295 13.5701 11.79V4.23001C13.5701 3.89053 13.4352 3.56496 13.1952 3.32492C12.9551 3.08487 12.6295 2.95001 12.2901 2.95001H9.18005C8.90391 2.95001 8.68005 2.72615 8.68005 2.45001ZM6.4135 4.54646C6.60877 4.74173 6.60877 5.05831 6.4135 5.25357L4.15706 7.51001H9.61995C9.89609 7.51001 10.12 7.73387 10.12 8.01001C10.12 8.28615 9.89609 8.51001 9.61995 8.51001H4.15432L6.41407 10.777C6.60902 10.9726 6.60851 11.2892 6.41294 11.4841C6.21736 11.6791 5.90078 11.6786 5.70583 11.483L2.59583 8.363C2.54734 8.31435 2.51093 8.25821 2.48662 8.19831C2.46298 8.14019 2.44995 8.07662 2.44995 8.01001C2.44995 7.9405 2.46414 7.8743 2.48977 7.81415C2.51146 7.76314 2.54201 7.71501 2.58142 7.67209C2.58681 7.66621 2.59235 7.66046 2.59802 7.65484L5.7064 4.54646C5.90166 4.3512 6.21824 4.3512 6.4135 4.54646Z" fill="currentColor"/>
</svg>

<svg xmlns="http://www.w3.org/2000/svg" fill="none" viewBox="0 0 17 16">
  <path fill="currentColor" fill-rule="evenodd" d="M8.68 2.45a.5.5 0 0 1 .5-.5h3.11a2.28 2.28 0 0 1 2.28 2.28v7.56a2.28 2.28 0 0 1-2.28 2.28H9.18a.5.5 0 1 1 0-1h3.11a1.28 1.28 0 0 0 1.28-1.28V4.23a1.28 1.28 0 0 0-1.28-1.28H9.18a.5.5 0 0 1-.5-.5ZM6.414 4.546a.5.5 0 0 1 0 .708L4.156 7.51H9.62a.5.5 0 1 1 0 1H4.154l2.26 2.267a.5.5 0 0 1-.708.706l-3.11-3.12a.498.498 0 0 1 .002-.708l3.108-3.109a.5.5 0 0 1 .707 0Z" clip-rule="evenodd"/>
</svg>
